calendar-arrow-right.svg

<svg  viewBox="0 0 24 24" fill="currentColor"><path  d="M19 3H18V1H16V3H8V1H6V3H5C3.89 3 3 3.89 3 5V19C3 20.1 3.89 21 5 21H19C20.1 21 21 20.1 21 19V5C21 3.89 20.1 3 19 3M19 19H5V8H19V19M12 17V15H8V12H12V10L16 13.5L12 17Z"/></svg>

<svg fill="currentColor" viewBox="0 0 24 24"><path d="M19 3h-1V1h-2v2H8V1H6v2H5c-1.11 0-2 .89-2 2v14a2 2 0 0 0 2 2h14c1.1 0 2-.9 2-2V5a2 2 0 0 0-2-2m0 16H5V8h14zm-7-2v-2H8v-3h4v-2l4 3.5z"/></svg>
